!!!SOCIAL_FUNCTION:	dance songs
!!!PDT:	1943
!!!OTL: No_50_Song_of_Dance_With_Wolf_Headdress_(a).krn
!!!REG: British Columbia
**kern	**kern
*staff2	*staff1
=1-	=1-
*clefF4	*clefF4
*k[b-e-]	*k[b-e-]
*M2/4	*M2/4
4GG/	4r
4GG/	8.r
.	16f\
=2!|:	=2!|:
4GG/	4f\
4GG/	8d\L
.	8c\J
=3	=3
4GG/	4.g\
4GG/	.
.	8g\
=4	=4
2r	4g\
.	4c\
=5	=5
2r	4d\
.	8B-\L
.	8c\J
=6	=6
2r	4..B-\
.	16B-\
=7	=7
2r	4B-\
.	8B-\
.	16r
.	16f\
=8	=8
2r	4f\
.	8f\L
.	8d\J
=9	=9
2r	[2f\
=10	=10
2r	4f\]
.	8c\
.	16r
.	16d\
=11	=11
2r	4d\
.	8B-\L
.	8c\J
=12	=12
2r	4..B-\
.	16B-\
=13	=13
2r	4B-\
.	8B-\
.	16r
.	16d\
=14	=14
2r	4d\
.	8c\L
.	8B-\J
=15	=15
2r	4d\
.	8c\
.	16r
.	16d\
=16	=16
2r	4d\
.	8c\L
.	8B-\J
=17	=17
2r	4..G\
.	16G\
=18	=18
2r	4G\
.	8G\L
.	8F\J
=19	=19
2r	4D\
.	8D\
.	16r
.	16G\
=20	=20
2r	4G\
.	8G\L
.	8G\J
=21	=21
2r	4F\
.	8F\
.	16r
.	16f\
=22:|!	=22:|!
2r	4F\
.	8F\
.	8r
==	==
*-	*-
